X: 2256
T: Babes In The Wood
R: polka
M: 2/4
K: Dmajor
|:F/G/ AB A|de f2|f e/f/ gc|ed BA|
F/G/ AB A|de f2|f e/f/ gc|edd2:|
|:e f/e/ ce|fea2|e f/e/ ce|fe c/B/ A|
e f/e/ ce|fea2|e f/e/ dB|BAA2:|

